X:1
T:T
T:Vögelfänger
T:Lied / HS.81.Vanpelt.337
T:Een speelmansboek uit Maastricht/Tongeren (1786-1824) 
T:BRON: Lusthof-der-muziek.blogspot.com: Handschrift van VanPelt (1786-1824)  / Transcriptie door Ad Kwakernaat (2015) 
T:Naar een origineel van Mozart Wolfgang Amadeus (1756-1791) 
T:Genoteerd door Van der Elst Johan
Z:Een speelmansboek uit Maastricht/Tongeren (1786-1824)
Z:Genoteerd door Van der Elst Johan
L:1/8
Q:1/4=100
M:2/4
K:G
V:1 treble nm="Viool" snm="Vl."
V:1
 b/>a/ |: gg{a} gf/g/ | ab aa/f/ | d>d d'>d' | ba gb | a/g/f/g/ a/g/f/g/ | ab a z/ a/ | d'>d' a>a | %8
 fe d(3(A/B/^c/) | dd AA | FE Dd/f/ | aa{b} ag/a/ | b>a gd' | ff g(f/g/) | a(b a) z/ f/ | %15
 g(g/4a/4b/4c'/4) d'(f | g)g/4a/4b/4c'/4 d'g/a/ | bb b(a/b/) | c'd' e'c'/a/ | ff{g} fe/f/ |1 %20
 g/b/a/f/ gb/>a/ :|2 g/b/a/f/ g(g/4a/4b/4c'/4) || %22
"_BRON: Alamire uitgave \"Speelmansboek uit Maastricht\"\n vermeldt bij concordatie:\n             Mozart Wolfgang Amadeus (1756-1791), \nDie Zauberflöte \n(1791)\n" [gd']f g(g/4a/4b/4c'/4) | %23
 d'f gg/d/ | Bd d/c/B/A/ | G3 |] %26

